!!!OTL: Die Mordeltern.
!!!OTL-incipit: Es war'n einmal zwei Bauersoehn',
!!!ARE: Europa, Mitteleuropa, Deutschland (BRD), Baden, Odenwald
!!!YOR: 4, S. 307
!!    ????
!!!SCT: Q0085G
!!!TXL: @@DE
!!!YEM: Copyright 1995, estate of Helmut Schaffrath.
**kern	**text
*ICvox	*
*M3/4	*
*k[f#]	*
*G:	*
!LO:TX:a:t=122 Odenwald	!
{8g	Es
=1	=1
8b	war'n
8b	einmal
4g	.
4b	ʒwei
=2	=2
8a	Bauerſöhn',
8a	.
4f#	.
8r}	.
{8a	die
=3	=3
8g	hatten
8g	.
4e	Luſt
4a	in
=4	=4
8f#	Krieg
8e	ʒu
4d	geh'n,
8r}	.
{8b	wohl
=5	=5
8cc	un-
8b	-ter
4a	die
4g	Sol-
=6	=6
8a/L	-da-
8ddJ	.
4b	-ten,
8r}	.
{8b	wohl
=7	=7
8cc	un-
8b	-ter
4a	die
4g	Sol-
=8	=8
8bL	-da-
8aJ	.
4g	-ten.
8r}	.
==	==
!!!AGN: Ballade, Habgier, Mord, Reue, Selbstmord
!!!ONB: ESAC (Essen Associative Code) Database: BALLADE
!!!AMT: simple triple
!!!AIN: vox
!!!EED: Helmut Schaffrath
!!!EEV: 1.0
!!!source: Deutsche Volkslieder mit ihren Melodien. Herausgegeben vom Deutschen Volksliedarchiv. Vierter Band. Berlin 1959.
!!!page: 307
!!!ENC: Anna Maria Matuszewska
!!!EEV: 2025/02/25
*-	*-
